icon/lg/keycdn.svg

<?xml version="1.0" encoding="UTF-8"?>
<svg viewBox="0 0 512 149" version="1.1" xmlns="http://www.w3.org/2000/svg" xmlns:xlink="http://www.w3.org/1999/xlink" preserveAspectRatio="xMidYMid" height="1em" width="1em">
  <g>
    <path d="M14.8323983,119.899859 C16.2889441,119.959615 17.7604287,120.161291 19.1310755,120.66548 L19.1310755,120.650541 L19.3402206,120.725235 L37.4237957,103.086093 L38.0885781,103.971225 C39.025996,105.241034 40.0231696,106.402536 41.0763642,107.564038 L41.4610417,108.008471 C41.7374119,108.284841 41.9577611,108.561211 42.2341313,108.837582 L42.6822992,109.27828 L43.1192629,109.722713 L43.5076751,110.107391 L43.9483736,110.551824 L44.3367858,110.936501 L44.8335052,111.380934 L45.2816731,111.769347 C53.6659159,118.905488 64.2462129,122.946436 75.2529021,123.216302 C84.3179111,123.444172 93.265177,121.125517 101.078578,116.523661 L102.460429,117.961533 C104.066364,119.675775 105.724585,121.390018 107.33052,123.10426 C97.7147172,129.285901 86.459787,132.427599 75.0325529,132.119904 C62.1421111,131.81182 49.7391864,127.131421 39.8588414,118.846665 L39.9148624,118.734623 L28.3110482,130.174109 C30.1169197,136.146245 27.8899159,142.603298 22.7864139,146.192428 C17.6829119,149.781558 10.8531691,149.693825 5.84354602,145.974784 C0.833922961,142.255744 -1.22648199,135.743616 0.732201463,129.819838 C2.69088491,123.89606 8.22719713,119.895769 14.4663946,119.896125 L14.8398678,119.896125 L14.8323983,119.899859 L14.8323983,119.899859 Z M125.414095,45.2911066 C131.092918,54.6444156 133.953515,65.4371392 133.652916,76.3752859 C133.327133,89.7291524 128.294096,102.538595 119.442258,112.542436 L119.498279,112.598457 L126.631618,120.17623 C129.507362,119.787817 132.383106,120.781256 134.373719,122.883911 C137.765903,126.477964 137.61737,132.137224 134.041328,135.548389 C130.447748,138.938082 124.791352,138.789581 121.380584,135.215998 C119.398763,133.120337 118.552794,130.195621 119.109867,127.36559 C114.941695,122.90866 110.758772,118.465548 106.561165,114.036329 L105.836627,113.26324 L106.665738,112.598457 C108.828572,110.887847 110.828913,108.981272 112.64131,106.90299 C120.200453,98.4162814 124.493689,87.5170494 124.753048,76.1549367 C124.99271,67.5825832 122.929188,59.1028 118.777476,51.5990699 L125.414095,45.2911066 L125.414095,45.2911066 Z M24.6398061,11.488042 C27.1794243,11.4506947 29.5696531,12.4553377 31.3399164,14.266683 C33.3204725,16.3645175 34.1649453,19.290261 33.606899,22.1208256 L47.3245718,36.4995461 L46.4917265,37.1643285 C44.3367858,38.8785708 42.3461733,40.7571412 40.5198891,42.8597957 C26.9463081,58.1408672 24.4660665,80.3134496 34.3277024,98.2160021 L27.7433689,104.632273 C21.9923616,95.2485193 19.1104292,84.3880481 19.4522626,73.3874998 C19.7361022,60.0731782 24.9236458,47.2107591 33.6367769,37.1942064 L26.0851476,29.3139206 C23.2177738,29.7085967 20.3358426,28.697905 18.343047,26.59877 C14.9518573,23.0037042 15.1020596,17.344413 18.6791729,13.9342918 C20.0840983,12.6158122 21.8721812,11.7786702 23.7845523,11.544063 C24.068392,11.5141851 24.3559664,11.5067156 24.6435408,11.4843072 L24.6398061,11.488042 L24.6398061,11.488042 Z M140.046778,2.27179048e-06 C145.764317,0.000942964917 150.944767,3.36969054 153.264742,8.59539368 C155.584717,13.8210968 154.608802,19.9229911 150.774686,24.1644308 C146.94057,28.4058705 140.967843,29.9908186 135.535221,28.2084398 L135.535221,28.2271134 L135.311137,28.148684 L115.677648,46.7849996 L115.012865,45.899868 C113.96714,44.518017 112.801904,43.1361659 111.584381,41.8663568 L111.360297,41.5862519 L110.75527,40.9774905 L109.649789,39.8720096 L109.261377,39.5396184 L108.8767,39.210962 L108.37998,38.7665288 L107.991568,38.4341376 L107.491114,37.9934391 C99.1438642,30.9619739 88.6509702,26.9826828 77.740234,26.710812 C68.6125476,26.486728 59.7089451,28.7574454 51.9705792,33.4034528 L45.6626158,26.8191192 C55.278323,20.6372645 66.5333205,17.4955481 77.9605832,17.8034748 C90.8619139,18.1065173 103.272264,22.8094838 113.134295,31.1327354 L113.246337,31.1327354 L126.243206,18.7894442 C124.866401,14.3952848 125.664074,9.608132 128.391312,5.89782102 C131.118549,2.18751004 135.449443,-0.00257479869 140.054247,2.27179048e-06 L140.046778,2.27179048e-06 L140.046778,2.27179048e-06 Z" fill="#2E3234"/>
    <path d="M77.0007569,32.2905025 C78.6365698,32.2979719 80.268648,32.4249528 81.8895219,32.6116895 C105.227866,35.5434546 121.761527,56.835165 118.885783,80.1735089 C115.954018,103.515588 94.6623073,120.049249 71.3239634,117.173505 C47.9856195,114.24174 31.4482236,92.9462944 34.3239677,69.6116852 C37.1100782,47.9614404 55.2982259,32.3651971 77.0007569,32.2905025 Z M77.2584535,50.5458753 L76.3621177,50.5682837 C66.9132442,51.3264345 60.0786836,58.4709779 59.835926,67.9684029 C59.9853153,74.5639406 62.8311815,79.2211521 68.2241354,82.8662511 L69.5238223,83.5721156 L66.2372576,99.0301738 L88.2759146,99.0301738 L84.9930847,83.5683809 C91.0433515,80.4536139 94.5054486,74.7357383 94.6772463,67.9684029 C94.5502654,58.1684646 86.9687582,50.788633 77.2584535,50.5458753 Z" fill="#047AED"/>
    <path d="M294.403275,54.2059133 C295.587186,54.2059133 296.01668,55.173209 296.121252,56.3533845 L296.121252,56.3533845 L298.055844,93.2898898 C298.164151,94.5783725 298.272458,95.116174 298.914832,95.116174 L298.914832,95.116174 L299.773821,95.116174 L315.127307,56.2450773 C315.556801,55.0686365 316.632404,54.209648 317.812579,54.209648 L317.812579,54.209648 L335.530151,54.209648 C336.493712,54.209648 337.461007,54.9565945 337.461007,55.815583 L337.461007,55.815583 C337.444486,56.078679 337.372123,56.3351222 337.251862,56.569999 L337.251862,56.569999 L307.725067,120.348027 C302.462828,131.836065 296.341602,138.495093 279.483019,138.495093 C275.188076,138.495093 268.103289,137.636104 265.309709,136.560502 C264.23784,136.131007 263.270545,135.813555 263.270545,134.842525 L263.270545,134.842525 L263.270545,134.525072 L265.096829,124.105168 C265.309709,122.924993 266.598191,121.853125 267.886674,121.853125 L267.886674,121.853125 L267.994981,121.853125 C271.968737,122.066004 278.41115,122.712113 282.489478,122.712113 C285.495938,122.712113 287.751717,121.744817 289.040199,118.633785 L289.040199,118.633785 L290.545297,115.085789 L289.148507,115.085789 C284.099148,115.085789 281.309303,113.154932 280.663194,107.679814 L280.663194,107.679814 L274.437395,56.569999 L274.437395,56.2450773 C274.437395,55.0649018 275.296384,54.2059133 277.122668,54.2059133 L277.122668,54.2059133 Z M242.31496,53.2386175 C257.88506,53.2386175 265.186462,63.5464795 265.186462,76.3267344 C265.186462,78.1110029 265.020617,79.8952714 264.763985,81.6795399 L264.648661,82.4442264 L263.573058,88.8866401 C263.390493,90.1686013 262.342194,91.1415377 261.066787,91.2424264 L260.89152,91.2507258 L227.495541,91.2507258 C227.282661,92.5392085 227.174354,93.6110768 227.174354,94.5783725 C227.174354,99.948918 230.610308,100.699599 235.980854,100.699599 L236.376524,100.698939 C242.026937,100.680505 252.134748,100.279215 256.314701,99.8692242 L256.596577,99.8406107 L257.026072,99.8406107 C257.936102,99.8406107 258.562972,100.220378 258.629815,101.080591 L258.635741,101.237401 L258.635741,101.666895 L256.917764,111.328648 C256.596577,113.046625 256.058776,113.797306 254.232492,114.338843 C247.039397,116.590886 239.737995,117.662755 230.718615,117.662755 C218.801084,117.662755 206.987735,110.25678 206.987735,95.0078668 C206.980289,93.4032994 207.089348,91.8005982 207.314177,90.2124539 L207.417619,89.5327488 L208.601529,82.4442264 C212.142056,61.1861285 224.384509,53.2386175 242.31496,53.2386175 Z M175.407226,33.6984967 C176.695709,33.6984967 177.554697,34.2362982 177.23351,35.8459679 L177.23351,35.8459679 L169.502614,79.3331941 L187.324757,56.1405048 C188.61324,54.4225278 189.367656,54.2059133 190.439524,54.2059133 L190.439524,54.2059133 L210.40914,54.2059133 C211.914237,54.2059133 212.022544,55.6027033 211.163556,56.4616918 L211.163556,56.4616918 L186.682383,84.2705106 L200.426199,114.335108 C200.960266,115.410711 200.426199,116.699194 199.029409,116.699194 L199.029409,116.699194 L179.702168,116.699194 C178.521993,116.699194 177.663004,116.053085 177.016896,114.335108 L177.016896,114.335108 L167.676329,89.8539358 L163.381387,114.335108 C163.164772,115.515283 161.984597,116.699194 160.804421,116.699194 L160.804421,116.699194 L144.69652,116.699194 C143.516344,116.699194 142.444476,116.053085 142.765663,114.335108 L142.765663,114.335108 L156.617786,35.8459679 C156.834401,34.6657924 157.368467,33.6984967 159.299324,33.6984967 L159.299324,33.6984967 Z M239.3085,69.2382119 C233.399252,69.2382119 230.808498,73.5955391 229.497938,79.5522859 L229.430133,79.8672609 L245.32142,79.8672609 C245.642607,78.3658984 245.859221,76.8608011 245.859221,75.5723184 C245.859221,71.8151774 244.141244,69.2382119 239.3085,69.2382119 Z" fill="#047AED"/>
    <path d="M385.164747,56.6745715 C385.164747,55.6027033 384.518638,55.2815163 383.338462,54.9565945 C380.44031,54.209648 375.286379,53.2386175 368.948538,53.2386175 C352.414877,53.2386175 341.785828,61.5073155 338.349874,81.4806653 L336.953084,89.5327488 C336.623394,91.5571389 336.443638,93.6031106 336.415282,95.6539755 C336.415282,108.213881 343.716684,117.662755 357.568808,117.662755 C363.902914,117.662755 368.843965,116.803766 372.601106,115.944778 C374.106204,115.623591 374.965192,115.085789 375.178072,113.692734 L377.325543,101.666895 L377.325543,101.237401 C377.325543,100.26637 376.574862,99.6239962 375.607566,99.6239962 L375.394686,99.6239962 C371.633811,99.8406107 368.197857,100.270105 362.939353,100.270105 C359.286785,100.270105 357.139313,98.9816222 357.139313,94.1488783 C357.139313,92.8603955 357.247621,91.359033 357.568808,89.5327488 L358.965598,81.4806653 C360.46696,72.5658587 363.581727,70.6350019 368.197857,70.6350019 C373.460095,70.6350019 376.683169,71.1728034 380.332003,71.3856832 L380.548617,71.3856832 C381.728793,71.3856832 382.800661,70.5266947 383.013541,69.3465192 L385.164747,57.212373 L385.164747,56.6745715 L385.164747,56.6745715 Z M452.177053,35.5247809 C452.177053,34.4491779 451.213492,33.6947619 450.137889,33.6947619 L434.138295,33.6947619 C432.95812,33.6947619 431.886251,34.6657924 431.673372,35.8459679 L428.450297,53.9930335 C426.302826,53.6681118 422.650258,53.2386175 420.932281,53.2386175 C401.39216,53.2386175 391.618365,61.3990082 388.077838,81.2640509 L386.572741,89.641056 C386.24455,91.4483874 386.064684,93.2795273 386.034939,95.116174 C386.034939,108.322188 395.162626,117.662755 409.873737,117.662755 C419.535491,117.662755 428.663177,116.161392 434.463217,114.981217 C437.899171,114.226801 438.433238,113.584427 438.758159,111.545263 L452.180788,35.8422332 L452.177053,35.5247809 L452.177053,35.5247809 Z M425.443838,70.7433092 L420.289907,100.161798 C418.247008,100.482985 415.994964,100.699599 412.880197,100.699599 C408.264068,100.699599 406.654398,98.0143265 406.654398,93.8276913 C406.654398,92.5392085 406.75897,91.1424185 407.080158,89.641056 L408.585255,81.2640509 C409.657123,75.0382516 412.234088,70.3138149 418.247008,70.3138149 C420.823973,70.3138149 423.296366,70.5266947 425.443838,70.7433092 L425.443838,70.7433092 Z M512,71.4902557 C512,59.4644168 507.058949,53.2386175 495.141417,53.2386175 C491.171396,53.2386175 485.263049,54.209648 477.748767,59.1469645 L478.286569,56.3533845 C478.607756,54.7437148 477.857075,54.2059133 476.45655,54.2059133 L461.749173,54.2059133 C460.568998,54.2059133 459.493395,55.173209 459.280515,56.3533845 L448.972653,114.335108 C448.756038,115.840205 449.939949,116.699194 451.441311,116.699194 L466.794797,116.699194 C468.408201,116.699194 469.48007,115.623591 469.696684,114.335108 L476.998086,72.7824732 C478.928943,71.7068702 482.898964,70.4183874 486.122038,70.4183874 C489.774606,70.4183874 491.171396,71.2773759 491.171396,74.6087574 C491.171396,76.4313069 490.741902,78.2575911 490.41698,80.0838754 L484.404061,114.335108 C484.191181,115.410711 484.404061,116.699194 486.230345,116.699194 L502.338247,116.699194 C503.62673,116.699194 504.80317,115.515283 505.019785,114.335108 L510.928132,80.8345566 C511.462199,77.8280969 512,74.2838357 512,71.4939904 L512,71.4902557 L512,71.4902557 Z" fill="#2E3234"/>
  </g>
</svg>

<svg width="512" height="149" xmlns="http://www.w3.org/2000/svg" preserveAspectRatio="xMidYMid"><path d="M14.832 119.9c1.457.06 2.928.261 4.3.765v-.014l.208.074 18.084-17.639.665.885c.937 1.27 1.934 2.432 2.987 3.593l.385.444c.276.277.497.553.773.83l.448.44.437.445.389.384.44.445.389.385.497.444.448.388a48.059 48.059 0 0 0 29.97 11.447 48.488 48.488 0 0 0 25.827-6.692l1.381 1.438c1.606 1.714 3.265 3.428 4.87 5.142a56.895 56.895 0 0 1-32.297 9.016 56.858 56.858 0 0 1-35.174-13.273l.056-.112-11.604 11.44a14.465 14.465 0 1 1-13.845-10.279h.374l-.008.004ZM125.414 45.29a56.884 56.884 0 0 1 8.239 31.084 56.663 56.663 0 0 1-14.21 36.167l.055.056 7.134 7.578c2.875-.388 5.751.605 7.742 2.708a8.982 8.982 0 0 1-.333 12.664 8.982 8.982 0 0 1-12.66-.332 8.919 8.919 0 0 1-2.271-7.85c-4.168-4.457-8.351-8.9-12.549-13.33l-.724-.773.829-.665a44.817 44.817 0 0 0 5.975-5.695 47.872 47.872 0 0 0 12.112-30.748 47.954 47.954 0 0 0-5.976-24.556l6.637-6.308ZM24.64 11.488a9.134 9.134 0 0 1 6.7 2.779 8.926 8.926 0 0 1 2.267 7.854L47.325 36.5l-.833.664a44.79 44.79 0 0 0-5.972 5.696c-13.574 15.28-16.054 37.453-6.192 55.356l-6.585 6.416a56.44 56.44 0 0 1-8.29-31.245c.283-13.314 5.47-26.176 14.184-36.193l-7.552-7.88a8.986 8.986 0 0 1-7.742-2.715 8.982 8.982 0 0 1 .336-12.665 9.075 9.075 0 0 1 5.106-2.39c.283-.03.571-.037.859-.06l-.004.004ZM140.047 0a14.465 14.465 0 1 1-4.512 28.208v.02l-.224-.08-19.633 18.637-.665-.885a45.949 45.949 0 0 0-3.429-4.034l-.224-.28-.605-.609-1.105-1.105-.389-.332-.384-.329-.497-.444-.388-.333-.5-.44A48.036 48.036 0 0 0 77.74 26.71c-9.127-.224-18.031 2.046-25.77 6.692l-6.307-6.584a56.891 56.891 0 0 1 32.298-9.016 56.596 56.596 0 0 1 35.173 13.33h.112l12.997-12.344A14.465 14.465 0 0 1 140.054 0h-.007Z" fill="#2E3234"/><path d="M77 32.29c1.637.008 3.269.135 4.89.322 23.338 2.931 39.872 24.223 36.996 47.562-2.932 23.342-24.224 39.875-47.562 37-23.338-2.932-39.876-24.228-37-47.562 2.786-21.65 20.974-37.247 42.677-37.321Zm.258 18.256-.896.022c-9.449.758-16.283 7.903-16.526 17.4.15 6.596 2.995 11.253 8.388 14.898l1.3.706-3.287 15.458h22.039l-3.283-15.462c6.05-3.114 9.512-8.832 9.684-15.6-.127-9.8-7.708-17.18-17.419-17.422ZM294.403 54.206c1.184 0 1.614.967 1.718 2.147l1.935 36.937c.108 1.288.216 1.826.859 1.826h.859l15.353-38.87c.43-1.177 1.505-2.036 2.686-2.036h17.717c.964 0 1.931.747 1.931 1.606a1.92 1.92 0 0 1-.21.754l-29.526 63.778c-5.262 11.488-11.383 18.147-28.242 18.147-4.295 0-11.38-.859-14.173-1.934-1.072-.43-2.04-.747-2.04-1.718v-.318l1.827-10.42c.213-1.18 1.501-2.252 2.79-2.252h.108c3.974.213 10.416.86 14.494.86 3.007 0 5.263-.968 6.551-4.08l1.505-3.547h-1.396c-5.05 0-7.84-1.931-8.486-7.406l-6.226-51.11v-.325c0-1.18.86-2.04 2.686-2.04Zm-52.088-.967c15.57 0 22.871 10.307 22.871 23.088 0 1.784-.165 3.568-.422 5.353l-.115.764-1.076 6.443a2.753 2.753 0 0 1-2.506 2.355l-.175.009h-33.396c-.213 1.288-.322 2.36-.322 3.327 0 5.37 3.436 6.122 8.807 6.122l.396-.001c5.65-.018 15.758-.42 19.938-.83l.282-.028h.43c.91 0 1.536.38 1.603 1.24l.006.156v.43l-1.718 9.662c-.321 1.718-.86 2.468-2.686 3.01-7.193 2.252-14.494 3.324-23.513 3.324-11.918 0-23.731-7.406-23.731-22.655a33.115 33.115 0 0 1 .326-4.796l.104-.68 1.184-7.088c3.54-21.258 15.783-29.205 33.713-29.205Zm-66.908-19.54c1.289 0 2.148.537 1.827 2.147l-7.731 43.487 17.822-23.192c1.288-1.718 2.043-1.935 3.115-1.935h19.97c1.504 0 1.613 1.397.754 2.256L186.682 84.27l13.744 30.064c.534 1.076 0 2.364-1.397 2.364h-19.327c-1.18 0-2.039-.646-2.685-2.364l-9.34-24.481-4.296 24.481c-.216 1.18-1.396 2.364-2.577 2.364h-16.107c-1.18 0-2.253-.646-1.931-2.364l13.852-78.489c.216-1.18.75-2.148 2.681-2.148Zm63.901 35.54c-5.909 0-8.5 4.357-9.81 10.313l-.068.315h15.891c.322-1.501.538-3.006.538-4.295 0-3.757-1.718-6.334-6.55-6.334Z" fill="#047AED"/><path d="M385.165 56.675c0-1.072-.646-1.393-1.827-1.718-2.898-.747-8.052-1.718-14.39-1.718-16.533 0-27.162 8.268-30.598 28.242l-1.397 8.052c-.33 2.024-.51 4.07-.538 6.121 0 12.56 7.302 22.009 21.154 22.009 6.334 0 11.275-.86 15.032-1.718 1.505-.321 2.364-.86 2.577-2.252l2.148-12.026v-.43c0-.97-.751-1.613-1.718-1.613h-.213c-3.761.217-7.197.646-12.456.646-3.652 0-5.8-1.288-5.8-6.121 0-1.289.109-2.79.43-4.616l1.397-8.052c1.501-8.915 4.616-10.846 9.232-10.846 5.262 0 8.485.538 12.134.75h.217c1.18 0 2.252-.858 2.465-2.038l2.15-12.135v-.537Zm67.012-21.15c0-1.076-.964-1.83-2.04-1.83h-15.999c-1.18 0-2.252.97-2.465 2.151l-3.223 18.147c-2.147-.325-5.8-.754-7.518-.754-19.54 0-29.314 8.16-32.854 28.025l-1.505 8.377a33.698 33.698 0 0 0-.538 5.475c0 13.206 9.128 22.547 23.839 22.547 9.661 0 18.79-1.502 24.59-2.682 3.435-.754 3.97-1.397 4.294-3.436l13.423-75.703-.004-.317Zm-26.733 35.218-5.154 29.419c-2.043.321-4.295.538-7.41.538-4.616 0-6.226-2.686-6.226-6.872 0-1.289.105-2.686.426-4.187l1.505-8.377c1.072-6.226 3.65-10.95 9.662-10.95 2.577 0 5.05.213 7.197.43ZM512 71.49c0-12.026-4.941-18.251-16.859-18.251-3.97 0-9.878.97-17.392 5.908l.538-2.794c.32-1.61-.43-2.147-1.83-2.147h-14.708c-1.18 0-2.256.967-2.468 2.147l-10.308 57.982c-.217 1.505.967 2.364 2.468 2.364h15.354c1.613 0 2.685-1.075 2.902-2.364l7.301-41.553c1.93-1.075 5.901-2.364 9.124-2.364 3.653 0 5.05.86 5.05 4.19 0 1.823-.43 3.65-.755 5.476l-6.013 34.251c-.213 1.076 0 2.364 1.826 2.364h16.108c1.289 0 2.465-1.184 2.682-2.364l5.908-33.5c.534-3.007 1.072-6.551 1.072-9.341v-.004Z" fill="#2E3234"/></svg>
